app/dist/common/images/simmons-first-national.svg

<svg height="18" width="18" xmlns="http://www.w3.org/2000/svg"><path d="m0 0h18v18h-18z" fill="#d83831"/><path d="m4 7.175v6.825h7.305c2.069 0 2.659-2.066 2.695-3.098v-6.897c-1.58-.004-5.252-.009-7.312 0-2.06.008-2.65 2.117-2.688 3.17z"/><path d="m6.688 6h6.312l-1 1h-4.956c-.17.018-.544.29-.544.726 0 .437.374.76.544.774 1.274-.01 3.808 0 4.419 0 .688 0 1.537.277 1.537 1.707 0 1.143-1.025 1.693-1.537 1.793h-6.463l.998-1h4.854c.195-.01.629-.33.61-.793-.018-.463-.43-.703-.61-.707h-4.352c-.489-.09-1.518-.258-1.5-1.68.018-1.424 1.133-1.807 1.688-1.82z" fill="#d83831"/><path d="m8.5 12.002 3.5-6.002h-1.5c-.696.95-1.174.99-1.602 1l-.898 1.5h1.12l-2.12 3.502z" fill="#fff"/></svg>

<!-- by TradingView --><svg width="18" height="18" xmlns="http://www.w3.org/2000/svg"><path fill="#D83831" d="M0 0h18v18H0z"/><path d="M4 7.175V14h7.305c2.069 0 2.659-2.066 2.695-3.098V4.005c-1.58-.004-5.252-.009-7.312 0-2.06.008-2.65 2.117-2.688 3.17z" fill="#000"/><path d="M6.688 6H13l-1 1H7.044c-.17.018-.544.29-.544.726 0 .437.374.76.544.774 1.274-.01 3.808 0 4.419 0 .688 0 1.537.277 1.537 1.707C13 11.35 11.975 11.9 11.463 12H5L5.998 11h4.854c.195-.01.629-.33.61-.793-.018-.463-.43-.703-.61-.707H6.5c-.489-.09-1.518-.258-1.5-1.68C5.018 6.396 6.133 6.013 6.688 6z" fill="#D83831"/><path d="M8.5 12.002L12 6h-1.5c-.696.95-1.174.99-1.602 1L8 8.5h1.12L7 12.002h1.5z" fill="#fff"/></svg>
